src/assets/Devices/PS5 Front-stick.svg

<svg width="952" height="638" fill="none" xmlns="http://www.w3.org/2000/svg"><path opacity=".2" d="M472.244 11.528c-65.328.13-221.554 2.544-361.13 40.61-26.212 47.469-83.545 179.713-103.18 328.94C-14.3 550.063 42.997 639.546 92.082 633.802c38.567-4.513 63.611-21.06 91.159-95.774 4.987-13.524 9.103-25.898 12.829-37.095 16.854-50.662 25.694-77.232 70.817-77.232h418.228c45.123 0 53.963 26.57 70.818 77.232 3.725 11.197 7.841 23.571 12.828 37.095 27.548 74.714 52.592 91.261 91.159 95.774 49.085 5.744 106.381-83.739 84.146-252.723-19.634-149.227-76.967-281.472-103.179-328.942C701.31 14.072 545.084 11.66 479.756 11.528v-.007c-1.21 0-2.463 0-3.756.002l-3.756-.002v.007Z" stroke="#fff" stroke-width="6"/><path opacity=".2" d="M211.043 30.494c34.617-4.525 63.714-7.541 70.236 20.613 6.522 28.154 16.054 72.899 22.074 102.059 6.02 29.16-.502 56.812-19.064 78.934-18.562 22.121-60.202 68.877-116.39 184.009m0 0c-56.189 115.132-65.721 194.568-68.731 217.192m68.731-217.192 27.09 39.824m-81.272 173.346c3.512-18.602 14.448-64.052 30.101-97.033 11.481-24.19 29.18-54.267 51.171-76.313m52.176-29.769c-19.073 2.701-36.688 14.244-52.176 29.769M739.602 30.489c-34.616-4.517-63.714-7.529-70.236 20.579-6.521 28.108-16.053 72.779-22.074 101.89-6.02 29.112.502 56.718 19.064 78.803 18.563 22.085 60.202 68.764 116.391 183.705m0 0c56.188 114.941 65.72 194.245 68.731 216.832m-68.731-216.832-27.091 39.758m81.273 173.059c-3.512-18.572-14.449-63.946-30.101-96.872-11.481-24.151-29.18-54.177-51.172-76.187m-52.175-29.72c19.072 2.697 36.688 14.221 52.175 29.72" stroke="#fff"/><path opacity=".2" d="M123.71 31.078v17.55c34.059-9.528 98.171-20.058 127.722-24.07l-3.506-15.544c-9.015-4.011-34.66-10.53-65.113-4.512-30.453 6.017-52.091 20.224-59.103 26.576Zm703.225 0v17.55c-34.06-9.528-98.171-20.058-127.723-24.07l3.506-15.544c9.016-4.011 34.661-10.53 65.114-4.512 30.453 6.017 52.09 20.224 59.103 26.576Z" stroke="#fff" stroke-width="3"/><path opacity=".2" d="M123.71 33.083v15.544c31.254-10.83 98.171-20.055 127.722-24.067l-3.506-15.544c-14.024 3.007-34.66 5.513-65.113 11.53-30.453 6.017-51.089 11.033-59.103 12.537Zm703.225 0v15.544c-31.255-10.83-98.171-20.055-127.723-24.067l3.506-15.544c14.025 3.007 34.661 5.513 65.114 11.53 30.453 6.017 51.089 11.033 59.103 12.537Z" stroke="#fff"/><circle cx="328.5" cy="309.994" r="36" stroke="#fff"/><circle cx="328.5" cy="310.994" r="54.5" stroke="#fff" stroke-width="6"/><circle cx="328.5" cy="310.994" r="71" stroke="#fff"/><circle cx="621.5" cy="309.994" r="36" stroke="#fff"/><circle cx="621.5" cy="310.994" r="54.5" stroke="#fff" stroke-width="6"/><circle cx="621.5" cy="310.994" r="71" stroke="#fff"/><g opacity=".2"><path d="m165.887 255.341-1.213.882 1.213-.882c-1.12-1.541-1.741-3.48-2.062-6.437-.323-2.985-.325-6.827-.325-12.11V225.45c0-3.361.017-4.713.416-5.94.138-.424.308-.836.51-1.233.587-1.15 1.53-2.117 3.907-4.494l12.318-12.319c1.88-1.879 3.206-3.202 4.337-4.112 1.108-.892 1.893-1.27 2.652-1.391.57-.09 1.15-.09 1.72 0 .759.121 1.544.499 2.652 1.391 1.131.91 2.457 2.233 4.337 4.112l12.318 12.319c2.377 2.377 3.32 3.344 3.907 4.494.202.397.372.809.51 1.233.399 1.227.416 2.579.416 5.94v11.344c0 5.283-.002 9.125-.325 12.11-.321 2.957-.942 4.896-2.062 6.437a12.471 12.471 0 0 1-2.766 2.766c-1.541 1.12-3.48 1.741-6.437 2.062-2.985.323-6.827.325-12.11.325h-2.6c-5.283 0-9.125-.002-12.11-.325-2.957-.321-4.896-.942-6.437-2.062a12.471 12.471 0 0 1-2.766-2.766Zm93.71-93.71.882-1.213-.882 1.213a12.492 12.492 0 0 1 2.766 2.766c1.12 1.542 1.741 3.48 2.061 6.437.324 2.985.326 6.827.326 12.11v2.6c0 5.283-.002 9.125-.326 12.11-.32 2.957-.941 4.896-2.061 6.437a12.492 12.492 0 0 1-2.766 2.766c-1.541 1.12-3.48 1.741-6.437 2.062-2.985.323-6.827.325-12.11.325h-11.344c-3.362 0-4.713-.017-5.941-.416a8.48 8.48 0 0 1-1.232-.51c-1.15-.586-2.118-1.53-4.494-3.907l-12.319-12.318c-1.879-1.88-3.203-3.206-4.112-4.336-.892-1.109-1.271-1.893-1.391-2.652a5.519 5.519 0 0 1 0-1.721c.12-.759.499-1.544 1.391-2.652.909-1.131 2.233-2.457 4.112-4.337l12.319-12.318c2.376-2.377 3.344-3.32 4.494-3.906a8.484 8.484 0 0 1 1.232-.511c1.228-.399 2.579-.416 5.941-.416h11.344c5.283 0 9.125.002 12.11.326 2.957.32 4.896.941 6.437 2.061Zm-106.362 47.197.463 1.427-.463-1.427c-1.228.399-2.579.416-5.941.416H135.95c-5.283 0-9.125-.002-12.11-.325-2.957-.321-4.896-.942-6.437-2.062a12.471 12.471 0 0 1-2.766-2.766c-1.12-1.541-1.741-3.48-2.062-6.437-.323-2.985-.325-6.827-.325-12.11v-2.6c0-5.283.002-9.125.325-12.11.321-2.957.942-4.895 2.062-6.437a12.513 12.513 0 0 1 2.766-2.766c1.541-1.12 3.48-1.741 6.437-2.061 2.985-.324 6.827-.326 12.11-.326h11.344c3.362 0 4.713.017 5.941.416.423.138.835.308 1.232.511 1.15.586 2.118 1.529 4.494 3.906l12.319 12.318c1.879 1.88 3.202 3.206 4.112 4.337.892 1.108 1.271 1.893 1.391 2.652.09.57.09 1.15 0 1.721-.12.759-.499 1.543-1.391 2.652-.909 1.13-2.233 2.456-4.112 4.336l-12.319 12.318c-2.376 2.377-3.344 3.321-4.494 3.907a8.48 8.48 0 0 1-1.232.51Zm10.265-77.134c0-5.283.002-9.125.325-12.11.321-2.957.942-4.895 2.062-6.437a12.513 12.513 0 0 1 2.766-2.766c1.541-1.12 3.48-1.741 6.437-2.061 2.985-.324 6.827-.326 12.11-.326h2.6c5.283 0 9.125.002 12.11.326 2.957.32 4.896.941 6.437 2.061a12.492 12.492 0 0 1 2.766 2.766c1.12 1.542 1.741 3.48 2.062 6.437.323 2.985.325 6.827.325 12.11v11.344c0 3.362-.017 4.713-.416 5.941a8.592 8.592 0 0 1-.51 1.232c-.587 1.15-1.53 2.118-3.907 4.495l-12.318 12.318c-1.88 1.88-3.206 3.203-4.337 4.112-1.108.892-1.893 1.271-2.652 1.391-.57.09-1.15.09-1.72 0-.759-.12-1.544-.499-2.652-1.391-1.131-.909-2.457-2.232-4.337-4.112l-12.318-12.318c-2.377-2.377-3.32-3.345-3.907-4.495a8.592 8.592 0 0 1-.51-1.232c-.399-1.228-.416-2.579-.416-5.941v-11.344Z" stroke="#fff" stroke-width="3"/><path d="m189.5 122.494 6.495 8.25h-12.99l6.495-8.25Zm0 126 6.495-8.25h-12.99l6.495 8.25Zm63-64-8.25 6.495v-12.99l8.25 6.495Zm-126 0 8.25 6.495v-12.99l-8.25 6.495Z" fill="#fff"/><circle cx="188" cy="185.494" r="91.5" stroke="#fff"/></g><path opacity=".2" d="M289.085 43.004c-1.803-8.799 4.517-17.207 13.471-17.923 130.253-10.421 211.538-10.346 345.48.044 8.973.696 15.32 9.114 13.514 17.93L633.458 180.16c-4.767 23.262-25.237 39.964-48.983 39.964H366.17c-23.746 0-44.216-16.702-48.983-39.964L289.085 43.004Z" stroke="#fff" stroke-width="2"/><path opacity=".2" d="M288.342 42.108c-.662-3.222 1.686-6.312 4.974-6.585 140.456-11.637 218.523-11.558 363.025.02 3.284.263 5.642 3.339 4.999 6.56l-27.552 137.913c-4.717 23.61-25.445 40.607-49.522 40.607H366.159c-23.978 0-44.65-16.862-49.47-40.351L288.342 42.108Zm-41.62 32.058c-1.256-6.02 2.606-11.922 8.627-13.18 6.02-1.26 11.918 2.601 13.174 8.622l3.972 19.04c1.256 6.021-2.606 11.922-8.626 13.181-6.021 1.259-11.919-2.602-13.175-8.622l-3.972-19.041Zm458.089 0c1.256-6.02-2.606-11.922-8.626-13.18-6.021-1.26-11.919 2.601-13.175 8.622l-3.972 19.04c-1.256 6.021 2.606 11.922 8.627 13.181 6.02 1.259 11.918-2.602 13.174-8.622l3.972-19.041Zm-252.53 287.357a4.514 4.514 0 0 1 4.515-4.514h38.055a4.514 4.514 0 0 1 0 9.028h-38.055a4.514 4.514 0 0 1-4.515-4.514Z" stroke="#fff"/><path opacity=".2" d="M452.281 361.523a4.514 4.514 0 0 1 4.515-4.514h38.055a4.514 4.514 0 0 1 0 9.028h-38.055a4.514 4.514 0 0 1-4.515-4.514Zm7.013 46.633a7.022 7.022 0 0 1 7.021-7.021h20.018a7.022 7.022 0 1 1 0 14.043h-20.018a7.022 7.022 0 0 1-7.021-7.022Z" stroke="#fff"/><g opacity=".2" stroke="#fff"><circle cx="767" cy="115.494" r="31.5" stroke-width="3"/><circle cx="767" cy="251.494" r="31.5" stroke-width="3"/><circle cx="835" cy="184.494" r="31.5" transform="rotate(90 835 184.494)" stroke-width="3"/><circle cx="699" cy="184.494" r="31.5" transform="rotate(90 699 184.494)" stroke-width="3"/><circle cx="767" cy="183.494" r="108.5"/><path d="m751.412 124.494 15.588-27 15.588 27h-31.176Zm-66.412 46h27v28h-27z" stroke-width="4"/><circle cx="835" cy="184.494" r="18" stroke-width="4"/><path stroke-width="4" d="m753.414 237.08 29 29m-29.828 0 29-29"/></g><path opacity=".2" d="M513.567 239.556v.001a4.504 4.504 0 0 1 1.826 3.627 4.512 4.512 0 0 1-4.509 4.515 4.512 4.512 0 0 1-4.509-4.515 4.511 4.511 0 0 1 7.192-3.628Zm-66.293 3.628a4.512 4.512 0 0 1-4.508 4.515 4.512 4.512 0 0 1-4.509-4.515 4.511 4.511 0 0 1 4.509-4.514 4.51 4.51 0 0 1 4.508 4.514Zm8.014 15.043a4.512 4.512 0 0 1-4.508 4.515 4.512 4.512 0 0 1-4.509-4.515 4.511 4.511 0 0 1 4.509-4.514 4.51 4.51 0 0 1 4.508 4.514Zm9.016-15.043a4.512 4.512 0 0 1-4.509 4.515 4.512 4.512 0 0 1-4.509-4.515 4.511 4.511 0 0 1 4.509-4.514c2.49 0 4.509 2.02 4.509 4.514Zm8.014 15.043a4.512 4.512 0 0 1-4.509 4.515 4.512 4.512 0 0 1-4.509-4.515 4.511 4.511 0 0 1 4.509-4.514c2.49 0 4.509 2.02 4.509 4.514Zm9.016-15.043a4.512 4.512 0 0 1-4.509 4.515 4.512 4.512 0 0 1-4.509-4.515 4.511 4.511 0 0 1 4.509-4.514c2.49 0 4.509 2.02 4.509 4.514Zm8.014 15.043a4.512 4.512 0 0 1-4.509 4.515 4.512 4.512 0 0 1-4.509-4.515 4.511 4.511 0 0 1 4.509-4.514c2.49 0 4.509 2.02 4.509 4.514Zm9.015-15.043a4.512 4.512 0 0 1-4.508 4.515 4.512 4.512 0 0 1-4.509-4.515 4.511 4.511 0 0 1 4.509-4.514 4.51 4.51 0 0 1 4.508 4.514Zm8.014 15.043a4.512 4.512 0 0 1-4.509 4.515 4.512 4.512 0 0 1-4.508-4.515 4.51 4.51 0 0 1 4.508-4.514c2.49 0 4.509 2.02 4.509 4.514Z" stroke="#fff"/><path opacity=".2" stroke="#fff" stroke-width="2" d="M469.812 406.655h13.023"/><path d="M504.097 324.78c-1.149 1.453-3.959 2.488-3.959 2.488l-20.924 7.533v-5.557l15.397-5.501c1.75-.626 2.017-1.514.596-1.979-1.416-.468-3.983-.334-5.733.297l-10.258 3.621v-5.763l.588-.201s2.965-1.054 7.135-1.516c4.167-.46 9.275.064 13.282 1.586 4.514 1.43 5.022 3.538 3.876 4.99v.002Zm-22.893-9.459v-14.206c0-1.668-.305-3.203-1.867-3.637-1.194-.385-1.937.728-1.937 2.394v35.576l-9.574-3.046v-42.417c4.071.757 10.001 2.549 13.188 3.624 8.108 2.789 10.856 6.263 10.856 14.085 0 7.625-4.696 10.516-10.663 7.627h-.003Zm-30.942 13.345c-4.635-1.31-5.407-4.038-3.294-5.608 1.953-1.449 5.273-2.54 5.273-2.54l13.726-4.894v5.578l-9.876 3.544c-1.745.625-2.014 1.513-.596 1.979 1.419.468 3.988.334 5.735-.294l4.737-1.723v4.988l-.943.16c-4.739.776-9.788.452-14.762-1.19Z" fill="#fff" opacity=".2"/></svg>

<svg width="952" height="638" viewBox="0 0 952 638" fill="none" xmlns="http://www.w3.org/2000/svg">
<path opacity="0.2" d="M472.244 11.5278C406.916 11.6584 250.69 14.0721 111.114 52.1372C84.902 99.6064 27.5694 231.852 7.93464 381.079C-14.2996 550.062 42.9964 639.546 92.0812 633.802C130.648 629.289 155.692 612.742 183.24 538.028C188.227 524.504 192.343 512.13 196.069 500.933C212.923 450.271 221.763 423.701 266.886 423.701H685.114C730.237 423.701 739.077 450.271 755.932 500.933C759.657 512.13 763.773 524.504 768.76 538.028C796.308 612.742 821.352 629.289 859.919 633.802C909.004 639.546 966.3 550.062 944.065 381.079C924.431 231.852 867.098 99.6064 840.886 52.1372C701.31 14.0721 545.084 11.6584 479.756 11.5278V11.521C478.546 11.521 477.293 11.5214 476 11.5225C474.707 11.5214 473.454 11.521 472.244 11.521V11.5278Z" stroke="white" stroke-width="6"/>
<path opacity="0.2" d="M211.043 30.4936C245.66 25.9688 274.757 22.9522 281.279 51.1067C287.801 79.2612 297.333 124.006 303.353 153.166C309.373 182.326 302.851 209.978 284.289 232.099C265.727 254.221 224.087 300.977 167.899 416.109M167.899 416.109C111.71 531.241 102.178 610.676 99.168 633.301M167.899 416.109L194.989 455.933M113.717 629.278C117.229 610.676 128.165 565.227 143.818 532.246C155.299 508.055 172.998 477.979 194.989 455.933M247.165 426.164C228.092 428.865 210.477 440.408 194.989 455.933" stroke="white"/>
<path opacity="0.2" d="M739.603 30.4888C704.987 25.9714 675.889 22.9599 669.367 51.0677C662.846 79.1756 653.314 123.847 647.293 152.958C641.273 182.07 647.795 209.676 666.357 231.761C684.92 253.845 726.559 300.525 782.748 415.466M782.748 415.466C838.936 530.407 848.468 609.711 851.479 632.298M782.748 415.466L755.657 455.224M836.93 628.282C833.418 609.711 822.481 564.337 806.829 531.411C795.348 507.26 777.649 477.233 755.657 455.224M703.482 425.504C722.554 428.2 740.17 439.724 755.657 455.224" stroke="white"/>
<path opacity="0.2" d="M123.711 31.0776V48.6274C157.77 39.1001 221.882 28.5703 251.433 24.5585L247.927 9.01449C238.912 5.00301 213.267 -1.51564 182.814 4.50158C152.361 10.5188 130.723 24.7261 123.711 31.0776Z" stroke="white" stroke-width="3"/>
<path opacity="0.2" d="M826.936 31.0776V48.6274C792.876 39.1001 728.765 28.5703 699.213 24.5585L702.719 9.01449C711.735 5.00301 737.38 -1.51564 767.833 4.50158C798.286 10.5188 819.923 24.7261 826.936 31.0776Z" stroke="white" stroke-width="3"/>
<path opacity="0.2" d="M123.711 33.083V48.6275C154.965 37.7969 221.882 28.5719 251.433 24.5601L247.927 9.01611C233.903 12.0228 213.267 14.5291 182.814 20.5463C152.361 26.5636 131.725 31.5787 123.711 33.083Z" stroke="white"/>
<path opacity="0.2" d="M826.936 33.083V48.6275C795.681 37.7969 728.765 28.5719 699.213 24.5601L702.719 9.01611C716.744 12.0228 737.38 14.5291 767.833 20.5463C798.286 26.5636 818.922 31.5787 826.936 33.083Z" stroke="white"/>
<circle cx="328.5" cy="309.994" r="36" stroke="white"/>
<circle cx="328.5" cy="310.994" r="54.5" stroke="white" stroke-width="6"/>
<circle cx="328.5" cy="310.994" r="71" stroke="white"/>
<circle cx="621.5" cy="309.994" r="36" stroke="white"/>
<circle cx="621.5" cy="310.994" r="54.5" stroke="white" stroke-width="6"/>
<circle cx="621.5" cy="310.994" r="71" stroke="white"/>
<g opacity="0.2">
<path d="M165.887 255.341L164.674 256.223L165.887 255.341C164.767 253.8 164.146 251.861 163.825 248.904C163.502 245.919 163.5 242.077 163.5 236.794V225.45C163.5 222.089 163.517 220.737 163.916 219.51C164.054 219.086 164.224 218.674 164.426 218.277C165.013 217.127 165.956 216.16 168.333 213.783L180.651 201.464C182.531 199.585 183.857 198.262 184.988 197.352C186.096 196.46 186.881 196.082 187.64 195.961C188.21 195.871 188.79 195.871 189.36 195.961C190.119 196.082 190.904 196.46 192.012 197.352C193.143 198.262 194.469 199.585 196.349 201.464L208.667 213.783C211.044 216.16 211.987 217.127 212.574 218.277C212.776 218.674 212.946 219.086 213.084 219.51C213.483 220.737 213.5 222.089 213.5 225.45V236.794C213.5 242.077 213.498 245.919 213.175 248.904C212.854 251.861 212.233 253.8 211.113 255.341C210.342 256.403 209.409 257.336 208.347 258.107C206.806 259.227 204.867 259.848 201.91 260.169C198.925 260.492 195.083 260.494 189.8 260.494H187.2C181.917 260.494 178.075 260.492 175.09 260.169C172.133 259.848 170.194 259.227 168.653 258.107C167.591 257.336 166.658 256.403 165.887 255.341ZM259.597 161.631L260.479 160.418L259.597 161.631C260.659 162.402 261.592 163.336 262.363 164.397C263.483 165.939 264.104 167.877 264.424 170.834C264.748 173.819 264.75 177.661 264.75 182.944V185.544C264.75 190.827 264.748 194.669 264.424 197.654C264.104 200.611 263.483 202.55 262.363 204.091C261.592 205.153 260.658 206.086 259.597 206.857C258.056 207.977 256.117 208.598 253.16 208.919C250.175 209.242 246.333 209.244 241.05 209.244H229.706C226.344 209.244 224.993 209.227 223.765 208.828C223.342 208.691 222.93 208.52 222.533 208.318C221.383 207.732 220.415 206.788 218.039 204.411L205.72 192.093C203.841 190.213 202.517 188.887 201.608 187.757C200.716 186.648 200.337 185.864 200.217 185.105C200.127 184.534 200.127 183.954 200.217 183.384C200.337 182.625 200.716 181.84 201.608 180.732C202.517 179.601 203.841 178.275 205.72 176.395L218.039 164.077C220.415 161.7 221.383 160.757 222.533 160.171C222.93 159.968 223.342 159.798 223.765 159.66C224.993 159.261 226.344 159.244 229.706 159.244H241.05C246.333 159.244 250.175 159.246 253.16 159.57C256.117 159.89 258.056 160.511 259.597 161.631ZM153.235 208.828L153.698 210.255L153.235 208.828C152.007 209.227 150.656 209.244 147.294 209.244H135.95C130.667 209.244 126.825 209.242 123.84 208.919C120.883 208.598 118.944 207.977 117.403 206.857C116.341 206.086 115.408 205.153 114.637 204.091C113.517 202.55 112.896 200.611 112.575 197.654C112.252 194.669 112.25 190.827 112.25 185.544V182.944C112.25 177.661 112.252 173.819 112.575 170.834C112.896 167.877 113.517 165.939 114.637 164.397C115.408 163.336 116.342 162.402 117.403 161.631C118.944 160.511 120.883 159.89 123.84 159.57C126.825 159.246 130.667 159.244 135.95 159.244H147.294C150.656 159.244 152.007 159.261 153.235 159.66C153.658 159.798 154.07 159.968 154.467 160.171C155.617 160.757 156.585 161.7 158.961 164.077L171.28 176.395C173.159 178.275 174.482 179.601 175.392 180.732C176.284 181.84 176.663 182.625 176.783 183.384C176.873 183.954 176.873 184.534 176.783 185.105C176.663 185.864 176.284 186.648 175.392 187.757C174.483 188.887 173.159 190.213 171.28 192.093L158.961 204.411C156.585 206.788 155.617 207.732 154.467 208.318C154.07 208.52 153.658 208.691 153.235 208.828ZM163.5 131.694C163.5 126.411 163.502 122.569 163.825 119.584C164.146 116.627 164.767 114.689 165.887 113.147C166.658 112.086 167.592 111.152 168.653 110.381C170.194 109.261 172.133 108.64 175.09 108.32C178.075 107.996 181.917 107.994 187.2 107.994H189.8C195.083 107.994 198.925 107.996 201.91 108.32C204.867 108.64 206.806 109.261 208.347 110.381C209.409 111.152 210.342 112.086 211.113 113.147C212.233 114.689 212.854 116.627 213.175 119.584C213.498 122.569 213.5 126.411 213.5 131.694V143.038C213.5 146.4 213.483 147.751 213.084 148.979C212.946 149.402 212.776 149.814 212.574 150.211C211.987 151.361 211.044 152.329 208.667 154.706L196.349 167.024C194.469 168.904 193.143 170.227 192.012 171.136C190.904 172.028 190.119 172.407 189.36 172.527C188.79 172.617 188.21 172.617 187.64 172.527C186.881 172.407 186.096 172.028 184.988 171.136C183.857 170.227 182.531 168.904 180.651 167.024L168.333 154.706C165.956 152.329 165.013 151.361 164.426 150.211C164.224 149.814 164.054 149.402 163.916 148.979C163.517 147.751 163.5 146.4 163.5 143.038V131.694Z" stroke="white" stroke-width="3"/>
<path d="M189.5 122.494L195.995 130.744H183.005L189.5 122.494Z" fill="white"/>
<path d="M189.5 248.494L195.995 240.244H183.005L189.5 248.494Z" fill="white"/>
<path d="M252.5 184.494L244.25 190.989L244.25 177.999L252.5 184.494Z" fill="white"/>
<path d="M126.5 184.494L134.75 190.989L134.75 177.999L126.5 184.494Z" fill="white"/>
<circle cx="188" cy="185.494" r="91.5" stroke="white"/>
</g>
<path opacity="0.2" d="M289.085 43.0042C287.282 34.2047 293.602 25.7972 302.556 25.0808C432.809 14.6593 514.094 14.7347 648.036 25.1245C657.009 25.8205 663.356 34.239 661.55 43.0552L633.458 180.159C628.691 203.421 608.221 220.122 584.475 220.122H366.17C342.424 220.122 321.954 203.421 317.187 180.159L289.085 43.0042Z" stroke="white" stroke-width="2"/>
<path opacity="0.2" d="M288.342 42.1082C287.68 38.8859 290.028 35.7954 293.316 35.523C433.772 23.886 511.839 23.9645 656.341 35.543C659.625 35.8062 661.983 38.8819 661.34 42.1023L633.788 180.016C629.071 203.626 608.343 220.622 584.266 220.622H366.159C342.181 220.622 321.509 203.761 316.689 180.272L288.342 42.1082Z" stroke="white"/>
<path opacity="0.2" d="M246.721 74.1657C245.465 68.1449 249.327 62.2438 255.348 60.9851C261.368 59.7264 267.266 63.5869 268.522 69.6077L272.494 88.6482C273.75 94.669 269.888 100.57 263.868 101.829C257.847 103.088 251.949 99.227 250.693 93.2062L246.721 74.1657Z" stroke="white"/>
<path opacity="0.2" d="M704.81 74.1657C706.066 68.1449 702.204 62.2438 696.184 60.9851C690.163 59.7264 684.265 63.5869 683.009 69.6077L679.037 88.6482C677.781 94.669 681.643 100.57 687.664 101.829C693.684 103.088 699.582 99.227 700.838 93.2062L704.81 74.1657Z" stroke="white"/>
<path opacity="0.2" d="M452.281 361.523C452.281 359.03 454.302 357.009 456.796 357.009H494.851C497.344 357.009 499.365 359.03 499.365 361.523C499.365 364.016 497.344 366.037 494.851 366.037H456.796C454.302 366.037 452.281 364.016 452.281 361.523Z" stroke="white"/>
<path opacity="0.2" d="M452.281 361.523C452.281 359.03 454.302 357.009 456.796 357.009H494.851C497.344 357.009 499.365 359.03 499.365 361.523C499.365 364.016 497.344 366.037 494.851 366.037H456.796C454.302 366.037 452.281 364.016 452.281 361.523Z" stroke="white"/>
<path opacity="0.2" d="M459.293 408.156C459.293 404.278 462.437 401.135 466.314 401.135H486.332C490.21 401.135 493.354 404.278 493.354 408.156C493.354 412.034 490.21 415.178 486.333 415.178H466.315C462.437 415.178 459.293 412.034 459.293 408.156Z" stroke="white"/>
<g opacity="0.2">
<circle cx="767" cy="115.494" r="31.5" stroke="white" stroke-width="3"/>
<circle cx="767" cy="251.494" r="31.5" stroke="white" stroke-width="3"/>
<circle cx="835" cy="184.494" r="31.5" transform="rotate(90 835 184.494)" stroke="white" stroke-width="3"/>
<circle cx="699" cy="184.494" r="31.5" transform="rotate(90 699 184.494)" stroke="white" stroke-width="3"/>
<circle cx="767" cy="183.494" r="108.5" stroke="white"/>
<path d="M751.412 124.494L767 97.4941L782.588 124.494H751.412Z" stroke="white" stroke-width="4"/>
<rect x="685" y="170.494" width="27" height="28" stroke="white" stroke-width="4"/>
<circle cx="835" cy="184.494" r="18" stroke="white" stroke-width="4"/>
<line x1="753.414" y1="237.08" x2="782.414" y2="266.08" stroke="white" stroke-width="4"/>
<line x1="752.586" y1="266.08" x2="781.586" y2="237.08" stroke="white" stroke-width="4"/>
</g>
<path opacity="0.2" d="M513.568 239.556L513.568 239.557C514.677 240.379 515.394 241.698 515.394 243.184C515.394 245.678 513.375 247.699 510.885 247.699C508.395 247.699 506.376 245.678 506.376 243.184C506.376 240.69 508.395 238.67 510.885 238.67C511.891 238.67 512.818 238.999 513.568 239.556ZM447.275 243.184C447.275 245.678 445.256 247.699 442.767 247.699C440.277 247.699 438.258 245.678 438.258 243.184C438.258 240.69 440.277 238.67 442.767 238.67C445.256 238.67 447.275 240.69 447.275 243.184ZM455.289 258.227C455.289 260.721 453.27 262.742 450.78 262.742C448.291 262.742 446.272 260.721 446.272 258.227C446.272 255.733 448.291 253.713 450.78 253.713C453.27 253.713 455.289 255.733 455.289 258.227ZM464.305 243.184C464.305 245.678 462.286 247.699 459.796 247.699C457.306 247.699 455.287 245.678 455.287 243.184C455.287 240.69 457.306 238.67 459.796 238.67C462.286 238.67 464.305 240.69 464.305 243.184ZM472.319 258.227C472.319 260.721 470.3 262.742 467.81 262.742C465.32 262.742 463.301 260.721 463.301 258.227C463.301 255.733 465.32 253.713 467.81 253.713C470.3 253.713 472.319 255.733 472.319 258.227ZM481.335 243.184C481.335 245.678 479.316 247.699 476.826 247.699C474.336 247.699 472.317 245.678 472.317 243.184C472.317 240.69 474.336 238.67 476.826 238.67C479.316 238.67 481.335 240.69 481.335 243.184ZM489.349 258.227C489.349 260.721 487.33 262.742 484.84 262.742C482.35 262.742 480.331 260.721 480.331 258.227C480.331 255.733 482.35 253.713 484.84 253.713C487.33 253.713 489.349 255.733 489.349 258.227ZM498.364 243.184C498.364 245.678 496.345 247.699 493.856 247.699C491.366 247.699 489.347 245.678 489.347 243.184C489.347 240.69 491.366 238.67 493.856 238.67C496.345 238.67 498.364 240.69 498.364 243.184ZM506.378 258.227C506.378 260.721 504.359 262.742 501.869 262.742C499.38 262.742 497.361 260.721 497.361 258.227C497.361 255.733 499.38 253.713 501.869 253.713C504.359 253.713 506.378 255.733 506.378 258.227Z" stroke="white"/>
<line opacity="0.2" x1="469.812" y1="406.655" x2="482.835" y2="406.655" stroke="white" stroke-width="2"/>
<g opacity="0.2">
<path d="M504.097 324.78C502.948 326.233 500.138 327.268 500.138 327.268L479.214 334.801V329.244L494.611 323.743C496.361 323.117 496.628 322.229 495.207 321.764C493.791 321.296 491.224 321.43 489.474 322.061L479.216 325.682V319.919L479.804 319.718C479.804 319.718 482.769 318.664 486.939 318.202C491.106 317.742 496.214 318.266 500.221 319.787C504.735 321.218 505.243 323.326 504.097 324.778V324.78ZM481.204 315.321V301.115C481.204 299.447 480.899 297.912 479.337 297.478C478.143 297.093 477.4 298.206 477.4 299.872V335.448L467.826 332.402V289.985C471.897 290.742 477.827 292.533 481.014 293.609C489.122 296.398 491.87 299.872 491.87 307.694C491.87 315.319 487.174 318.21 481.207 315.321H481.204ZM450.262 328.666C445.627 327.356 444.855 324.628 446.968 323.058C448.921 321.609 452.241 320.518 452.241 320.518L465.967 315.624V321.202L456.091 324.746C454.346 325.371 454.077 326.259 455.495 326.725C456.914 327.193 459.483 327.059 461.23 326.431L465.967 324.708V329.696L465.024 329.856C460.285 330.632 455.236 330.308 450.262 328.666Z" fill="white"/>
</g>
<g opacity="0.2">
<path fill-rule="evenodd" clip-rule="evenodd" d="M688 41H703V42.7143H688V41ZM688 46.1429H703V47.8571H688V46.1429ZM703 51.2857H688V53H703V51.2857Z" fill="white"/>
</g>
<g opacity="0.2">
<path d="M256.857 40V52H255.143L255.143 40H256.857Z" fill="white"/>
<path d="M265.538 44.2727L261.03 53.1992L259.5 52.4265L264.008 43.5L265.538 44.2727Z" fill="white"/>
<path d="M251.008 53.1992L246.5 44.2727L248.03 43.5L252.538 52.4265L251.008 53.1992Z" fill="white"/>
</g>
</svg>
